apps/statesvisited/state-images/OH.svg

<svg height="635" width="1182" xmlns="http://www.w3.org/2000/svg"><path d="m755.04182 200.71332s-8.0181 1.18787-10.3939 2.6727c-2.3757 1.48483-2.6727 4.45449-5.6423 5.64235-2.9697 1.18787-.5939.59394-5.9393 1.7818-5.3454 1.18787-8.3151 5.34539-12.1756 5.34539-3.8606 0-3.5636-3.26663-8.3151-3.86056s-7.4242-1.78179-12.4726-.29696-10.6908 2.96966-10.6908 2.96966-.8909 17.81797.8909 22.56942c1.7818 4.75146 3.2667 18.11494 3.2667 20.78763 0 2.6727 1.1878 12.17562 1.1878 12.17562l5.6424-.8909s2.9697 3.56359 5.3454 4.45449 11.5817 2.37573 14.2544 2.37573c2.6726 0 3.8605-2.37573 5.0484-2.37573 1.1878 0 9.2059 4.15753 9.2059 4.15753s2.9697-8.90899 3.5636-11.87865c.594-2.96966 8.3151-9.20595 10.9878-11.58168s8.315-9.79988 8.315-9.79988 2.3758-17.81797 2.3758-20.1937-4.7515-23.16336-4.4545-24.05426z" fill="#20639b" fill-rule="evenodd" opacity=".9" stroke="#000"/></svg>

<?xml version="1.0" encoding="UTF-8" standalone="no"?>
<!-- Created with Inkscape (http://www.inkscape.org/) -->
<svg
   xmlns:dc="http://purl.org/dc/elements/1.1/"
   xmlns:cc="http://web.resource.org/cc/"
   xmlns:rdf="http://www.w3.org/1999/02/22-rdf-syntax-ns#"
   xmlns:svg="http://www.w3.org/2000/svg"
   xmlns="http://www.w3.org/2000/svg"
   xmlns:xlink="http://www.w3.org/1999/xlink"
   xmlns:sodipodi="http://sodipodi.sourceforge.net/DTD/sodipodi-0.dtd"
   xmlns:inkscape="http://www.inkscape.org/namespaces/inkscape"
   id="svg1923"
   sodipodi:version="0.32"
   inkscape:version="0.44"
   width="1182"
   height="635"
   version="1.0"
   sodipodi:docbase="/Users/amyshore/Desktop"
   sodipodi:docname="usa.svg">
  <metadata
     id="metadata1928">
    <rdf:RDF>
      <cc:Work
         rdf:about="">
        <dc:format>image/svg+xml</dc:format>
        <dc:type
           rdf:resource="http://purl.org/dc/dcmitype/StillImage" />
      </cc:Work>
    </rdf:RDF>
  </metadata>
  <defs
     id="defs1926" />
  <sodipodi:namedview
     inkscape:window-height="752"
     inkscape:window-width="1280"
     inkscape:pageshadow="2"
     inkscape:pageopacity="0.0"
     guidetolerance="10.0"
     gridtolerance="10.0"
     objecttolerance="10.0"
     borderopacity="1.0"
     bordercolor="#666666"
     pagecolor="#ffffff"
     id="base"
     inkscape:zoom="0.59527559"
     inkscape:cx="775.234"
     inkscape:cy="319.32597"
     inkscape:window-x="0"
     inkscape:window-y="22"
     inkscape:current-layer="layer2" />
  <g
     inkscape:groupmode="layer"
     id="layer1"
     inkscape:label="bg"
     style="opacity:1;display:none"
     sodipodi:insensitive="true">
    <image
       xlink:href="ElectoralCollege1996-Large.png"
       sodipodi:absref="/Users/amyshore/Desktop/ElectoralCollege1996-Large.png"
       width="1182"
       height="635"
       id="image1930"
       x="-1.3571358"
       y="1.6798911" />
  </g>
  <g
     inkscape:groupmode="layer"
     id="layer2"
     inkscape:label="vector"
     style="opacity:0.9;display:inline"> <path style="fill:#20639B;fill-opacity:1;fill-rule:evenodd;stroke:black;stroke-width:1px;stroke-linecap:butt;stroke-linejoin:miter;stroke-opacity:1" d="M 755.04182,200.71332 C 755.04182,200.71332 747.02372,201.90119 744.64792,203.38602 C 742.27222,204.87085 741.97522,207.84051 739.00562,209.02837 C 736.03592,210.21624 738.41172,209.62231 733.06632,210.81017 C 727.72092,211.99804 724.75122,216.15556 720.89072,216.15556 C 717.03012,216.15556 717.32712,212.88893 712.57562,212.295 C 707.82412,211.70107 705.15142,210.51321 700.10302,211.99804 C 695.05462,213.48287 689.41222,214.9677 689.41222,214.9677 C 689.41222,214.9677 688.52132,232.78567 690.30312,237.53712 C 692.08492,242.28858 693.56982,255.65206 693.56982,258.32475 C 693.56982,260.99745 694.75762,270.50037 694.75762,270.50037 L 700.40002,269.60947 C 700.40002,269.60947 703.36972,273.17306 705.74542,274.06396 C 708.12112,274.95486 717.32712,276.43969 719.99982,276.43969 C 722.67242,276.43969 723.86032,274.06396 725.04822,274.06396 C 726.23602,274.06396 734.25412,278.22149 734.25412,278.22149 C 734.25412,278.22149 737.22382,269.3125 737.81772,266.34284 C 738.41172,263.37318 746.13282,257.13689 748.80552,254.76116 C 751.47822,252.38543 757.12052,244.96128 757.12052,244.96128 C 757.12052,244.96128 759.49632,227.14331 759.49632,224.76758 C 759.49632,222.39185 754.74482,201.60422 755.04182,200.71332 z " id="path12594" />   </g>
</svg>
